outputs/icons/action/upload_sharp.svg

<svg xmlns="http://www.w3.org/2000/svg" width="1200" height="1200" fill="none"><g clip-path="url(#a)"><path fill="#000" d="M250 1000h700V900H250zm0-500h200v300h300V500h200L600 150z"/></g><defs><clipPath id="a"><path fill="#fff" d="M0 0h1200v1200H0z"/></clipPath></defs></svg>

<svg width="1200" height="1200" viewBox="0 0 1200 1200" fill="none" xmlns="http://www.w3.org/2000/svg"><g clip-path="url(#clip0_755_1825)"><path d="M250 1000H950V900H250V1000ZM250 500H450V800H750V500H950L600 150L250 500Z" fill="black"/></g><defs><clipPath id="clip0_755_1825"><path width="24" fill="white" d="M0 0H1200V1200H0V0z"/></clipPath></defs></svg>
